X: 3102
T: MERRY MAY THE PAIR BE
Q:"Reel."
R: Reel.
%R:reel
B: James Kerr "Merry Melodies" v.3 p.13 #102
Z: 2016 John Chambers <jc:trillian.mit.edu>
M: C
L: 1/8
K: A
|:\
vA2(Aa) cAec | A2(Aa) cAea |\
[1 A2(Aa) cAec | dBBc defa :|\
[2 A2(Aa) cABG | AB,B,C DEFG |]\
AAGA FAED |
CA,EA, FA,EG |\
AAGA FAEC | DB,B,C DEFG |\
AAGA FAEA | CA,EA, FA,Ed |\
cAeA aAec | dBfB bBfa |]

%%sep 1 1 500
%%sep 1 1 500

